icons/home-empty.svg

<svg width="24" height="24" viewBox="0 0 24 24" fill="none" xmlns="http://www.w3.org/2000/svg">
<path fill-rule="evenodd" clip-rule="evenodd" d="M13.2447 4.69499C12.5299 4.0517 11.4629 4.0517 10.7481 4.69499L10.7419 4.70059L5.7607 9.08398C5.17991 9.67247 4.79639 10.4826 4.79639 11.2375V18.3375C4.79639 19.1233 5.4606 19.7875 6.2464 19.7875H17.7464C18.6702 19.7875 19.2576 19.1025 19.199 18.3998L19.1964 18.3687V11.2375C19.1964 10.4338 18.8753 9.64689 18.2525 9.10195L18.2509 9.10055L13.2447 4.69499ZM14.2448 3.57705C12.9606 2.42433 11.0321 2.42435 9.74796 3.5771L4.73298 7.99028L4.71607 8.00719C3.90582 8.81743 3.29639 9.99939 3.29639 11.2375V18.3375C3.29639 19.9518 4.6322 21.2875 6.2464 21.2875H17.7464C19.4116 21.2875 20.8167 19.9898 20.6964 18.3087V11.2375C20.6964 10.0416 20.2178 8.82891 19.2412 7.9739C19.2409 7.97363 19.2406 7.97336 19.2403 7.97309L14.2448 3.57705Z" fill="black"/>
</svg>

<svg xmlns="http://www.w3.org/2000/svg" fill="none" viewBox="0 0 24 24">
  <path fill="#000" fill-rule="evenodd" d="M13.245 4.695a1.856 1.856 0 0 0-2.497 0l-.006.006L5.76 9.084c-.581.588-.965 1.399-.965 2.154v7.1c0 .785.665 1.45 1.45 1.45h11.5c.924 0 1.512-.686 1.453-1.388l-.003-.031v-7.131c0-.804-.32-1.591-.944-2.136l-.001-.001-5.006-4.406Zm1-1.118a3.356 3.356 0 0 0-4.497 0L4.733 7.99l-.017.017c-.81.81-1.42 1.992-1.42 3.23v7.1a2.97 2.97 0 0 0 2.95 2.95h11.5c1.666 0 3.07-1.297 2.95-2.978v-7.072c0-1.195-.478-2.408-1.455-3.263l-4.996-4.397Z" clip-rule="evenodd"/>
</svg>
